X: 1
T: the Birken Tree
Z: John Chambers <jc:trillian.mit.edu>
M: C
L: 1/4
K: EDor
B \
|  "Em"Be ed | "D"f>e dc | "G"Bc "D"de | "A"cA2 B \
|  "Em"Be ed | "D"f>e dc | "G"dB "D"AF | "G"d2 "A"cd/c/ |]
[| "Em"BE EF | "(G)"B>c dB | "D"AG FG | A2 dc/d/ \
|  "Em"BE EF | "(G)"B>c de | "D"dB AF | "Em"E3 |]
